src/assets/svg/inventory-3.svg

<svg width="30" height="30" viewBox="0 0 30 30" fill="none" xmlns="http://www.w3.org/2000/svg">
<path d="M22 22V25H7.5C6.30653 25 5.16193 24.5259 4.31802 23.682C3.47411 22.8381 3 21.6935 3 20.5C3 19.3065 3.47411 18.1619 4.31802 17.318C5.16193 16.4741 6.30653 16 7.5 16H8V14H7.5C5.77609 14 4.12279 14.6848 2.90381 15.9038C1.68482 17.1228 1 18.7761 1 20.5C1 22.2239 1.68482 23.8772 2.90381 25.0962C4.12279 26.3152 5.77609 27 7.5 27H22V30H30V22H22ZM28 28H24V24H28V28Z" fill="#00C700"/>
<path d="M20 21H18V18H12V21H10V18C10 17.4696 10.2107 16.9609 10.5858 16.5858C10.9609 16.2107 11.4696 16 12 16H18C18.5304 16 19.0391 16.2107 19.4142 16.5858C19.7893 16.9609 20 17.4696 20 18V21ZM15 15C14.4067 15 13.8266 14.8241 13.3333 14.4944C12.8399 14.1648 12.4554 13.6962 12.2284 13.1481C12.0013 12.5999 11.9419 11.9967 12.0576 11.4147C12.1734 10.8328 12.4591 10.2982 12.8787 9.87868C13.2982 9.45912 13.8328 9.1734 14.4147 9.05765C14.9967 8.94189 15.5999 9.0013 16.1481 9.22836C16.6962 9.45543 17.1648 9.83994 17.4944 10.3333C17.8241 10.8266 18 11.4067 18 12C17.9992 12.7954 17.6829 13.558 17.1204 14.1204C16.558 14.6829 15.7954 14.9992 15 15ZM15 11C14.8022 11 14.6089 11.0587 14.4444 11.1685C14.28 11.2784 14.1518 11.4346 14.0761 11.6173C14.0004 11.8 13.9806 12.0011 14.0192 12.1951C14.0578 12.3891 14.153 12.5673 14.2929 12.7071C14.4327 12.847 14.6109 12.9422 14.8049 12.9808C14.9989 13.0194 15.2 12.9996 15.3827 12.9239C15.5654 12.8482 15.7216 12.72 15.8315 12.5556C15.9414 12.3911 16 12.1978 16 12C16 11.7348 15.8946 11.4804 15.7071 11.2929C15.5196 11.1054 15.2652 11 15 11Z" fill="#00C700"/>
<path d="M22.5 3H8V0H0V8H8V5H22.5C23.6935 5 24.8381 5.47411 25.682 6.31802C26.5259 7.16193 27 8.30653 27 9.5C27 10.6935 26.5259 11.8381 25.682 12.682C24.8381 13.5259 23.6935 14 22.5 14H22V16H22.5C24.2239 16 25.8772 15.3152 27.0962 14.0962C28.3152 12.8772 29 11.2239 29 9.5C29 7.77609 28.3152 6.12279 27.0962 4.90381C25.8772 3.68482 24.2239 3 22.5 3ZM6 6H2V2H6V6Z" fill="#00C700"/>
</svg>

<svg xmlns="http://www.w3.org/2000/svg" width="30" height="30" fill="none"><path fill="#00C700" d="M22 22v3H7.5a4.5 4.5 0 1 1 0-9H8v-2h-.5a6.5 6.5 0 1 0 0 13H22v3h8v-8zm6 6h-4v-4h4z"/><path fill="#00C700" d="M20 21h-2v-3h-6v3h-2v-3a2 2 0 0 1 2-2h6a2 2 0 0 1 2 2zm-5-6a3 3 0 1 1 0-5.999A3 3 0 0 1 15 15m0-4a1 1 0 1 0 0 2.002A1 1 0 0 0 15 11"/><path fill="#00C700" d="M22.5 3H8V0H0v8h8V5h14.5a4.5 4.5 0 1 1 0 9H22v2h.5a6.5 6.5 0 1 0 0-13M6 6H2V2h4z"/></svg>
